!!!COM: Anonymous
!!!OTL@@POL: Najwyższa Matko wcielonego Boga
!!!TXO: Polish
!!!ODT: 
!!!GTL: Hymnbook L 1642(a)
!!!ARL: Biblioteka Diecezjalna w Sandomierzu 
!!!voices:	3
**kern	**text	**kern	**text	**kern	**text
*staff3	*staff3	*staff2	*staff2	*staff1	*staff1
*I"Basso	*	*I"Canto II	*	*I"Canto I	*
=1-	=1-	=1-	=1-	=1-	=1-
*clefF4	*	*clefG2	*	*clefG2	*
*k[b-]	*	*k[b-]	*	*k[b-]	*
*M3/1	*	*M3/1	*	*M3/1	*
1G	Naj-	1g	Naj-	1g	Naj-
1G	-wyż-	1g	-wyż-	1b-	-wyż-
1F	-sza	1a	-sza	1cc	-sza
=2	=2	=2	=2	=2	=2
2BB-/	Ma-	0b-	Ma-	0dd	Ma-
2C/	.	.	.	.	.
2D\	.	.	.	.	.
2E-i\	.	.	.	.	.
1F	-tko	1a	-tko	1cc	-tko
=3	=3	=3	=3	=3	=3
1.G	wcie-	1.g	wcie-	1.b-	wcie-
2G\	-lo-	2g/	-lo-	2a/	-lo-
1C	-ne-	1a	-ne-	1cc	-ne-
=4	=4	=4	=4	=4	=4
1G	-go	1g	-go	1b-	-go
0D	Bo-	0f#	Bo-	0a	Bo-
=5	=5	=5	=5	=5	=5
0.GG	-ga	0.g	-ga	0.g	-ga
=6	=6	=6	=6	=6	=6
1G	Nie	1b-	Nie	1dd	Nie
1G	pad-	1b-	pad-	1dd	pad-
1E	-ła	1cc	-ła	1ee	-ła
=7	=7	=7	=7	=7	=7
2D\	na	0dd	na	0ff	na
2E\	.	.	.	.	.
2F\	.	.	.	.	.
2G\	.	.	.	.	.
1A	Cię	1cc#	Cię	1ee	Cię
=8	=8	=8	=8	=8	=8
1.B-	żad-	1.dd	żad-	1.dd	żad-
2A\	-na	2cc\	-na	2dd\	-na
1G	grze-	1b-	grze-	1gg	grze-
=9	=9	=9	=9	=9	=9
1D	-chu	1dd	-chu	1ff	-chu
0A	trwo-	0cc#	trwo-	0ee	trwo-
=10	=10	=10	=10	=10	=10
0.D	-ga	0.dd	-ga	0.dd	-ga
=11||	=11||	=11||	=11||	=11||	=11||
1BB-	Broń	1dd	Broń	1ff	Broń
1C	nas	1cc	nas	1ee-	nas
1D	od	1b-	od	1dd	od
=12	=12	=12	=12	=12	=12
0F	grze-	0a	grze-	0cc	grze-
1BB-	-chu	1b-	-chu	1b-	-chu
=13	=13	=13	=13	=13	=13
1.F	nie-	1.a	nie-	1.cc	nie-
2D\	-win-	2b-\	-win-	2dd\	-win-
1C	-nie	1cc	-nie	1ee-i	-nie
=14	=14	=14	=14	=14	=14
2D\	po-	1b-	po-	1dd	po-
2E-i\	.	.	.	.	.
0F	-czę-	0a	-czę-	0cc	-czę-
=15	=15	=15	=15	=15	=15
0BB-	-ta	0b-	-ta	0b-	-ta
1F	Pa-	1a	Pa-	1cc	Pa-
=16	=16	=16	=16	=16	=16
0G	-nien-	0b-	-nien-	0dd	-nien-
1C	-ko	1g	-ko	1b-	-ko
=17	=17	=17	=17	=17	=17
0.D	świę-	1g	świę-	0.a	świę-
.	.	0f#	.	.	.
=18	=18	=18	=18	=18	=18
0.GG	-ta.	0.g	-ta.	0.g	-ta.
==	==	==	==	==	==
*-	*-	*-	*-	*-	*-
!!!GTL: Hymnbook L 1642(a)
!!!EFL: 7/34
!!!YEM: Creative Commons CC/BY/NC/SA 4.0
!!!ENC: Marcin Konik
!!!END: 2015-01-07 
!!!EED: Marcin Konik
!!!EEV: 
!!!ONB: Translated from MusicXML and edited by Marcin Konik
!!!CharacterEncoding: utf-8
!!!RDF**kern: i=editorial accidental
!!muse2ps: z14jc180F
!!title: @{OTL}, @{GTL}: @{pag}, ed. @{ENC}
